apps/scalable/telegram.svg

<svg height="48" width="48" xmlns="http://www.w3.org/2000/svg" xmlns:xlink="http://www.w3.org/1999/xlink"><linearGradient id="a"><stop offset="0" stop-color="#ececec"/><stop offset="1" stop-color="#fff"/></linearGradient><linearGradient id="b" gradientUnits="userSpaceOnUse" x1="409.69748544048" x2="409.69748544048" y1="546.31886773474" y2="501.277221516"><stop offset="0" stop-color="#197cf1"/><stop offset="1" stop-color="#01b6ff"/></linearGradient><linearGradient id="c" gradientUnits="userSpaceOnUse" x1="407.829373347594" x2="408.06638834677" xlink:href="#a" y1="546.344046542035" y2="500.719502534062"/><linearGradient id="d" gradientUnits="userSpaceOnUse" x1="401.54199" x2="416.3912" xlink:href="#a" y1="532.59521" y2="512.17749"/><g transform="matrix(.95652174 0 0 .95652174 -366.807455 -477.024174)"><rect fill="url(#b)" height="45.041645" ry="22.520823" width="45.041668" x="386.0506" y="501.27719"/><path d="m31.4375 12.306641c-.184747-.01149-.397584.0355-.630859.146484l-20.277344 9.349609c-1.4541002.58996-1.0102676 1.35692-.5859376 1.78125l6.5585936 6.558594v2.015625c.002.52511.109277.828037.279297.998047l12.695312 12.695312c8.888811-2.205639 15.654385-9.66192 16.84961-18.916015l-14.427734-14.427735c-.119537-.119533-.276191-.189685-.460938-.201171z" fill-opacity=".078431" fill-rule="evenodd" transform="translate(384.57143 499.798)"/><path d="m408.57143 500.798c-12.6912 0-23 10.3088-23 23s10.3088 23 23 23c12.69121 0 23-10.3088 23-23s-10.30879-23-23-23zm0 1.91667c11.65552 0 21.08333 9.42782 21.08333 21.08333 0 11.65552-9.42781 21.08333-21.08333 21.08333-11.65551 0-21.08333-9.42781-21.08333-21.08333 0-11.65551 9.42782-21.08333 21.08333-21.08333z" fill="url(#c)"/><g fill="url(#d)"><path d="m394.90125 523.69919 17.05622 12.76722s2.27681 2.10476 2.56721-.84997l2.20576-22.44355c.04-.90067-.53201-1.31279-1.35272-.92231l-20.27712 9.35001c-2.12331.86147-.19935 2.0986-.19935 2.0986z" fill="url(#d)" fill-rule="evenodd"/><path d="m401.07362 528.3208v3.6348c.005 1.4455.80811 1.20603 1.52386 1.15105l3.39706-1.13235 9.6183-17.63352c.44076-.84388-.37445-1.06245-.79227-.51253z" fill="url(#d)" fill-rule="evenodd"/></g><path d="m401.07362 528.3208v3.6348c.005 1.4455.80811 1.20603 1.52386 1.15105l3.39706-1.13235 9.6183-17.63352c.44076-.84388-.37445-1.06245-.79227-.51253z" fill-opacity=".078431" fill-rule="evenodd"/><path d="m403.42307 529.733-1.94404 2.94529c-.35014 1.45732 4.51466-.70253 4.51466-.70253l9.59082-17.54283c.44077-.84387-.12443-.99289-.54228-.44294z" fill-opacity=".078431" fill-rule="evenodd"/></g></svg>

<?xml version="1.0" encoding="UTF-8" standalone="no"?>
<!-- Created with Inkscape (http://www.inkscape.org/) -->

<svg
   xmlns:dc="http://purl.org/dc/elements/1.1/"
   xmlns:cc="http://creativecommons.org/ns#"
   xmlns:rdf="http://www.w3.org/1999/02/22-rdf-syntax-ns#"
   xmlns:svg="http://www.w3.org/2000/svg"
   xmlns="http://www.w3.org/2000/svg"
   xmlns:xlink="http://www.w3.org/1999/xlink"
   xmlns:sodipodi="http://sodipodi.sourceforge.net/DTD/sodipodi-0.dtd"
   xmlns:inkscape="http://www.inkscape.org/namespaces/inkscape"
   width="48"
   height="48"
   id="svg5453"
   version="1.1"
   inkscape:version="0.91 r13725"
   sodipodi:docname="telegram.svg">
  <sodipodi:namedview
     id="base"
     pagecolor="#5a5a5a"
     bordercolor="#666666"
     borderopacity="1.0"
     inkscape:pageopacity="0"
     inkscape:pageshadow="2"
     inkscape:zoom="5.6568543"
     inkscape:cx="11.87858"
     inkscape:cy="20.067213"
     inkscape:document-units="px"
     inkscape:current-layer="layer1"
     showgrid="false"
     fit-margin-top="0"
     fit-margin-left="0"
     fit-margin-right="0"
     fit-margin-bottom="0"
     inkscape:window-width="1366"
     inkscape:window-height="642"
     inkscape:window-x="0"
     inkscape:window-y="33"
     inkscape:window-maximized="1"
     inkscape:showpageshadow="false"
     borderlayer="true"
     showguides="false"
     showborder="true">
    <inkscape:grid
       type="xygrid"
       id="grid4063" />
    <sodipodi:guide
       position="1.1650391e-05,47.999996"
       orientation="4,0"
       id="guide4146" />
    <sodipodi:guide
       position="1.1650391e-05,43.999996"
       orientation="0,48"
       id="guide4148" />
    <sodipodi:guide
       position="48.000012,43.999996"
       orientation="-4,0"
       id="guide4150" />
    <sodipodi:guide
       position="48.000012,47.999996"
       orientation="0,-48"
       id="guide4152" />
    <sodipodi:guide
       position="1.1650391e-05,4.0000264"
       orientation="4,0"
       id="guide4154" />
    <sodipodi:guide
       position="1.1650391e-05,2.6367188e-05"
       orientation="0,48"
       id="guide4156" />
    <sodipodi:guide
       position="48.000012,2.6367188e-05"
       orientation="-4,0"
       id="guide4158" />
    <sodipodi:guide
       position="48.000012,4.0000264"
       orientation="0,-48"
       id="guide4160" />
    <sodipodi:guide
       position="48.000012,48.000026"
       orientation="0,-4"
       id="guide4162" />
    <sodipodi:guide
       position="44.000012,48.000026"
       orientation="48,0"
       id="guide4164" />
    <sodipodi:guide
       position="44.000012,2.6367188e-05"
       orientation="0,4"
       id="guide4166" />
    <sodipodi:guide
       position="48.000012,2.6367188e-05"
       orientation="-48,0"
       id="guide4168" />
    <sodipodi:guide
       position="4.0000422,48.000026"
       orientation="0,-4"
       id="guide4170" />
    <sodipodi:guide
       position="4.2167969e-05,48.000026"
       orientation="48,0"
       id="guide4172" />
    <sodipodi:guide
       position="4.2167969e-05,2.6367188e-05"
       orientation="0,4"
       id="guide4174" />
    <sodipodi:guide
       position="4.0000422,2.6367188e-05"
       orientation="-48,0"
       id="guide4176" />
    <sodipodi:guide
       position="4.0000117,47.999996"
       orientation="43.999969,0"
       id="guide4638" />
    <sodipodi:guide
       position="4.0000117,4.0000264"
       orientation="0,20"
       id="guide4640" />
    <sodipodi:guide
       position="24.000012,4.0000264"
       orientation="-43.999969,0"
       id="guide4642" />
    <sodipodi:guide
       position="24.000012,47.999996"
       orientation="0,-20"
       id="guide4644" />
    <sodipodi:guide
       position="4.0000422,24.000026"
       orientation="20,0"
       id="guide4666" />
    <sodipodi:guide
       position="4.0000422,4.0000264"
       orientation="0,39.999969"
       id="guide4668" />
    <sodipodi:guide
       position="44.000012,4.0000264"
       orientation="-20,0"
       id="guide4670" />
    <sodipodi:guide
       position="44.000012,24.000026"
       orientation="0,-39.999969"
       id="guide4672" />
  </sodipodi:namedview>
  <defs
     id="defs5455">
    <linearGradient
       inkscape:collect="always"
       id="linearGradient3276">
      <stop
         style="stop-color:#ececec;stop-opacity:1"
         offset="0"
         id="stop3278" />
      <stop
         style="stop-color:#ffffff;stop-opacity:1"
         offset="1"
         id="stop3280" />
    </linearGradient>
    <linearGradient
       inkscape:collect="always"
       xlink:href="#linearGradient4143"
       id="linearGradient4174"
       x1="409.57144"
       y1="543.79797"
       x2="409.57144"
       y2="503.798"
       gradientUnits="userSpaceOnUse"
       gradientTransform="matrix(1.126042,0,0,1.126042,-51.497158,-66.020486)" />
    <linearGradient
       id="linearGradient4143"
       inkscape:collect="always">
      <stop
         id="stop4145"
         offset="0"
         style="stop-color:#197cf1;stop-opacity:1" />
      <stop
         id="stop4147"
         offset="1"
         style="stop-color:#01b6ff;stop-opacity:1" />
    </linearGradient>
    <linearGradient
       inkscape:collect="always"
       xlink:href="#linearGradient3276"
       id="linearGradient3282"
       x1="370.72177"
       y1="562.38959"
       x2="370.96909"
       y2="514.78137"
       gradientUnits="userSpaceOnUse"
       gradientTransform="matrix(0.95833333,0,0,0.95833333,52.554345,7.3873581)" />
    <linearGradient
       inkscape:collect="always"
       xlink:href="#linearGradient3276"
       id="linearGradient3612"
       x1="401.54199"
       y1="532.59521"
       x2="416.3912"
       y2="512.17749"
       gradientUnits="userSpaceOnUse" />
  </defs>
  <metadata
     id="metadata5458">
    <rdf:RDF>
      <cc:Work
         rdf:about="">
        <dc:format>image/svg+xml</dc:format>
        <dc:type
           rdf:resource="http://purl.org/dc/dcmitype/StillImage" />
        <dc:title></dc:title>
      </cc:Work>
    </rdf:RDF>
  </metadata>
  <g
     inkscape:label="Layer 1"
     inkscape:groupmode="layer"
     id="layer1"
     transform="translate(-384.57143,-499.798)">
    <rect
       style="opacity:1;fill:url(#linearGradient4174);fill-opacity:1;stroke:none;stroke-width:2.79999995;stroke-miterlimit:4;stroke-dasharray:none;stroke-opacity:0.55026455"
       id="rect4166"
       width="45.041668"
       height="45.041645"
       x="386.0506"
       y="501.27719"
       ry="22.520823" />
    <path
       style="fill:#000000;fill-opacity:0.07843138;fill-rule:evenodd;stroke:none;stroke-width:1px;stroke-linecap:butt;stroke-linejoin:miter;stroke-opacity:1"
       d="M 31.4375 12.306641 C 31.252753 12.295154 31.039916 12.342145 30.806641 12.453125 L 10.529297 21.802734 C 9.0751968 22.392694 9.5190294 23.159654 9.9433594 23.583984 L 16.501953 30.142578 L 16.501953 32.158203 C 16.503953 32.683313 16.61123 32.98624 16.78125 33.15625 L 29.476562 45.851562 C 38.365373 43.645923 45.130947 36.189642 46.326172 26.935547 L 31.898438 12.507812 C 31.778901 12.388279 31.622247 12.318127 31.4375 12.306641 z "
       id="path3355"
       transform="translate(384.57143,499.798)" />
    <path
       style="color:#000000;font-style:normal;font-variant:normal;font-weight:normal;font-stretch:normal;font-size:medium;line-height:normal;font-family:sans-serif;text-indent:0;text-align:start;text-decoration:none;text-decoration-line:none;text-decoration-style:solid;text-decoration-color:#000000;letter-spacing:normal;word-spacing:normal;text-transform:none;direction:ltr;block-progression:tb;writing-mode:lr-tb;baseline-shift:baseline;text-anchor:start;white-space:normal;clip-rule:nonzero;display:inline;overflow:visible;visibility:visible;opacity:1;isolation:auto;mix-blend-mode:normal;color-interpolation:sRGB;color-interpolation-filters:linearRGB;solid-color:#000000;solid-opacity:1;fill:url(#linearGradient3282);fill-opacity:1;fill-rule:nonzero;stroke:none;stroke-width:1.99969602;stroke-linecap:butt;stroke-linejoin:round;stroke-miterlimit:4;stroke-dasharray:none;stroke-dashoffset:0;stroke-opacity:1;color-rendering:auto;image-rendering:auto;shape-rendering:auto;text-rendering:auto;enable-background:accumulate"
       d="m 408.57143,500.798 c -12.6912,0 -23,10.3088 -23,23 0,12.6912 10.3088,23 23,23 12.69121,0 23,-10.3088 23,-23 0,-12.6912 -10.30879,-23 -23,-23 z m 0,1.91667 c 11.65552,0 21.08333,9.42782 21.08333,21.08333 0,11.65552 -9.42781,21.08333 -21.08333,21.08333 -11.65551,0 -21.08333,-9.42781 -21.08333,-21.08333 0,-11.65551 9.42782,-21.08333 21.08333,-21.08333 z"
       id="path3256"
       inkscape:connector-curvature="0" />
    <g
       id="g3602"
       style="fill-opacity:1;fill:url(#linearGradient3612)">
      <path
         style="opacity:1;fill:url(#linearGradient3612);fill-opacity:1;fill-rule:evenodd;stroke:none;stroke-width:1px;stroke-linecap:butt;stroke-linejoin:miter;stroke-opacity:1"
         d="m 394.90125,523.69919 17.05622,12.76722 c 0,0 2.27681,2.10476 2.56721,-0.84997 l 2.20576,-22.44355 c 0.04,-0.90067 -0.53201,-1.31279 -1.35272,-0.92231 l -20.27712,9.35001 c -2.12331,0.86147 -0.19935,2.0986 -0.19935,2.0986 z"
         id="path4183"
         inkscape:connector-curvature="0"
         sodipodi:nodetypes="ccccccc" />
      <path
         sodipodi:nodetypes="ccccccc"
         inkscape:connector-curvature="0"
         id="path3599"
         d="m 401.07362,528.3208 0,3.6348 c 0.005,1.4455 0.80811,1.20603 1.52386,1.15105 l 3.39706,-1.13235 9.6183,-17.63352 c 0.44076,-0.84388 -0.37445,-1.06245 -0.79227,-0.51253 z"
         style="opacity:1;fill:url(#linearGradient3612);fill-opacity:1;fill-rule:evenodd;stroke:none;stroke-width:1px;stroke-linecap:butt;stroke-linejoin:miter;stroke-opacity:1" />
    </g>
    <g
       id="g3606">
      <path
         style="opacity:1;fill:#000000;fill-opacity:0.07843138;fill-rule:evenodd;stroke:none;stroke-width:1px;stroke-linecap:butt;stroke-linejoin:miter;stroke-opacity:1"
         d="m 401.07362,528.3208 0,3.6348 c 0.005,1.4455 0.80811,1.20603 1.52386,1.15105 l 3.39706,-1.13235 9.6183,-17.63352 c 0.44076,-0.84388 -0.37445,-1.06245 -0.79227,-0.51253 z"
         id="path4185"
         inkscape:connector-curvature="0"
         sodipodi:nodetypes="ccccccc" />
      <path
         sodipodi:nodetypes="cccccc"
         inkscape:connector-curvature="0"
         id="path4185-4"
         d="m 403.42307,529.733 -1.94404,2.94529 c -0.35014,1.45732 4.51466,-0.70253 4.51466,-0.70253 l 9.59082,-17.54283 c 0.44077,-0.84387 -0.12443,-0.99289 -0.54228,-0.44294 z"
         style="opacity:1;fill:#000000;fill-opacity:0.07843138;fill-rule:evenodd;stroke:none;stroke-width:1px;stroke-linecap:butt;stroke-linejoin:miter;stroke-opacity:1" />
    </g>
  </g>
</svg>
